src/lib/packages/icons/src/assets/line/poll-vertical-circle.svg

<svg width="24" height="24" viewBox="0 0 24 24" fill="none" xmlns="http://www.w3.org/2000/svg">
<path d="M8 16.75C7.586 16.75 7.25 16.414 7.25 16V11C7.25 10.586 7.586 10.25 8 10.25C8.414 10.25 8.75 10.586 8.75 11V16C8.75 16.414 8.414 16.75 8 16.75ZM12.75 16V8C12.75 7.586 12.414 7.25 12 7.25C11.586 7.25 11.25 7.586 11.25 8V16C11.25 16.414 11.586 16.75 12 16.75C12.414 16.75 12.75 16.414 12.75 16ZM16.75 16V13C16.75 12.586 16.414 12.25 16 12.25C15.586 12.25 15.25 12.586 15.25 13V16C15.25 16.414 15.586 16.75 16 16.75C16.414 16.75 16.75 16.414 16.75 16ZM22.75 12C22.75 6.072 17.928 1.25 12 1.25C6.072 1.25 1.25 6.072 1.25 12C1.25 17.928 6.072 22.75 12 22.75C17.928 22.75 22.75 17.928 22.75 12ZM21.25 12C21.25 17.101 17.101 21.25 12 21.25C6.899 21.25 2.75 17.101 2.75 12C2.75 6.899 6.899 2.75 12 2.75C17.101 2.75 21.25 6.899 21.25 12Z" fill="currentColor"/>
</svg>

<svg xmlns="http://www.w3.org/2000/svg" width="24" height="24" fill="none"><path fill="currentColor" d="M8 16.75a.75.75 0 0 1-.75-.75v-5a.75.75 0 0 1 1.5 0v5a.75.75 0 0 1-.75.75Zm4.75-.75V8a.75.75 0 0 0-1.5 0v8a.75.75 0 0 0 1.5 0Zm4 0v-3a.75.75 0 0 0-1.5 0v3a.75.75 0 0 0 1.5 0Zm6-4c0-5.928-4.822-10.75-10.75-10.75S1.25 6.072 1.25 12 6.072 22.75 12 22.75 22.75 17.928 22.75 12Zm-1.5 0c0 5.101-4.149 9.25-9.25 9.25S2.75 17.101 2.75 12 6.899 2.75 12 2.75s9.25 4.149 9.25 9.25Z"/></svg>
